svg/free/task.svg

<svg version="1.1" xmlns="http://www.w3.org/2000/svg" width="24" height="24" viewBox="0 0 24 24">
<title>task</title>
<path d="M7.504 8.139l-3.669 3.669 2.907 2.907-0.002 0.002 3.139 3.139 0.534 0.53 3.139-3.139 0.528-0.532 9.481-9.481-3.669-3.669-9.481 9.481zM21.439 5.233l-11.031 11.031-1.548-1.548 0.002-0.002-2.907-2.907 1.548-1.548 2.907 2.907 9.481-9.481z"></path>
<path d="M21 21.75h-18.75v-18.75h14.073l1.5-1.5h-17.073v21.75h21.75v-14.855l-1.5 1.5v11.855z"></path>
</svg>

<svg xmlns="http://www.w3.org/2000/svg" width="24" height="24" viewBox="0 0 24 24"><path d="M7.504 8.139l-3.669 3.669 2.907 2.907-.002.002 3.139 3.139.534.53 3.139-3.139.528-.532 9.481-9.481-3.669-3.669-9.481 9.481zm13.935-2.906L10.408 16.264 8.86 14.716l.002-.002-2.907-2.907 1.548-1.548 2.907 2.907 9.481-9.481z"/><path d="M21 21.75H2.25V3h14.073l1.5-1.5H.75v21.75H22.5V8.395l-1.5 1.5V21.75z"/></svg>
